X:18540
T:Watson's Quick Step. GHW.024
M:4/4
L:1/8
Q:130
S:George H.Watson,MS,Swanton Abbott,Norfolk,1850-1880
R:March
O:England
A:Norfolk
Z:vmp.Taz Tarry
K:F
(3cdc)|B>AG>A F>fe>d|c>BG>A B2 (3cde)|f>ae>g d>fc>f|d>fc>f g2 c2|!
B>AG>A F>fe>d|c>BG>A B2 c2|d>gd>e c>d (3efg)|f2e2f2:|!
|:(3efe)|d>^cd>f a>f d2|e>ce>g b>g e2|d>^cd>f a>f (3def)|e2 c2 A2 c2|!
d>^cd>f a>f d2|e>ce>g b>g e2|d>ab>a g>f (3efe)| d2 ^c2 d2:||


